X: 8354
T: Countess Cathleen, The
R: slip jig
M: 9/8
K: Dmajor
d2 d' c'ba gfg|aa/b/a gfe fdB|A2 A def gab|(e3e)ef (3gagfe:|
=c2 =c' bga ega|dda add bbd|=c2 =c' bga ega|dda add bbd|
d2 d' c'ba gfg|aa/b/s gfe fdB|A2 a def gab|(e3e)=cd efg|
(d3d)de fga|(e3e)ef ga=c'|(b6b3)|bb/c'/b a^gf efg|
(B6B3)|BB/c/B A^GF EFG|(B,6B,3)|B,B,E EBB eeb|

